!!!OTL: Shiliuhua
!!!ARE: Asia, China,ÿZhejiang, Huangyan, Wenling
!! III, 644
!!!SCT: C1632
!!!YEM: Copyright 1995, estate of Helmut Schaffrath.
**kern
*ICvox
*Ivox
!! Mixed meters:  2/4; 1/4
*M1/4
*k[b-]
*F:
{8ff
8cc
8dd
8dd
=1
8ff
8cc
4dd
=2
4ff
16dd
16ff
16dd
16cc
=3
2dd}
=4
{8a
8dd
8cc
8cc
=5
8a
8dd
4cc
=6
8r
4cc
8g
=7
2a}
=8
{8a
8g
8a
8cc
=9
4f
8g
8a
=10
4cc
8r
[8f
=11
8f]
8g
8f
8c
=12
2d}
=13
{8a
8dd
=14
4cc
=15
8a
[8cc
=16
8cc]
8ff
=17
4dd
=18
8a
[8cc
=19
8cc]
8ff
=20
4dd}
=21
{8a
8cc
=22
4ff
=23
4dd
=24
8a
8cc
=25
4ff
=26
4dd
=27
8cc
8g
=28
2a}
==
!!!AGN: Xiaodiao, Shieryue huaming diao
!!!AMT: irregular
!!!AIN: vox
!!!EED: Helmut Schaffrath
!!!EEV: 1.0
*-
!!!ONB: Tied note syntax fixed by Craig Sapp, 2004/05/03/
